X: 1061
T: Port a' Bhodich or the Carles Rant
%R: strathspey, air
B: Niel Gow & Sons "Complete Repository" v.1 p.6 #1
Z: 2021 John Chambers <jc:trillian.mit.edu>
M: C
L: 1/8
Q: "SLOWISH"
K: A
% - - - - - - - - - -
% Voice 1 formatted for proofreading.
V: 1 staves=2
e !segno!|\
A<Ae>B Tc>BAa | A<Ae>c Td>cBe | A<Ae>B c>Aed | c<Ae>c Td>cB<e || A<Ae>B Tc>AA<a | A<Ae>c Td>cBe |
A<Ae>Bc>Ae>d | c<Ae>c Td>cB<e |[| c<Aag a>AA<e | c<Aa>f =g>BB<e | c<Aa>g aAa>e | f<ae<=g d>cB<e ||
cAa>g a>AAe | c<Aa>f =g>BB<e | c<Aa>g aAa>e | f/g/a e/f/=g d>cB<e |]| d/c/B/A/ A,>A TcAA<e |
d/c/B/A/ A,>e d>BB<e | d/c/B/A/ A,>e d/c/B/A/ A,>e | d/c/B/A/ A,>e Td>BBe || d/c/B/A/ A,>e cAA<e |
d/c/B/A/ A,>e d>BB<e | d/c/B/A/ A,>A A,A/B/ c>A | A,A/B/ c>A Td>cB<e |[| c<Aa>g a>AAe | c<Aa>f =g>BBe |
c<Aa>g aAa>e | f<ae<=g Td>cB<e || c<Aa>g a<AAe | cAa>f =g>BB<e | c<Aa>g aAa>e | f/g/a e/f/=g Td>cB<e |]
% - - - - - - - - - -
% Voice 2 preserves the book's staff layout.
V: 2 clef=bass middle=d
z !segno!|\
a2a2 a2a2 | a2a2 b2b2 | a2a2 a2a2 | a2a2 b2b2 || a2a2 a2a2 | a2a2 b2b2 |
a2a2 a2a2 | a2a2 b2b2 |[| a2a2 a2a2 | a2a2 b2b2 | a2a2 a2a2 | d'2c'2 b2b2 || a2a2 a2a2 |
a2a2 b2b2 | a2a2 a2a2 | d'2c'2 b2b2 |]| a2A2 A2A2 | A2A2 B2B2 | A2A2 A2A2 | A2A2 B2B2 ||
A2A2 A2A2 | A2A2 B2B2 | A2A2 A2A2 | A2A2 B2B2 |[| a2a2 a2a2 | a2a2 b2b2 |
a2a2 a2a2 | d'2c'2 b2b2 || a2a2 a2a2 | a2a2 b2b2 | a2a2 a2a2 | d'2c'2 b2b2 |]


